X: 1
T:Oot be est da Vong
M:4/4
L:1/8
R:Reel
O:Shetland
A:Shetland
K:D
dB|"D"AFAB AB d2|"D"fdfd "A7"edBd|"D"AFAB "Bm"ABde|"A7"faef "D"d2:||!ef|
"G"g2 ge "D"f2 fd|"Em"edef "A7"ed B2|"G"g2 ge "D"f2 fd|"E"edef "A7"a2 a2
|!"G
"g2 ge "D"f2 fd|"Em"edef "A"edBd|"D"AFAB "Bm"ABde|"A7"faef "D"d2:||
